X:100
T:The children in the wood
M:3/4
L:1/8
K:D
%%score 1 2
V:1 clef-treble
V:2 clef-bass octave=-1
V:1
z[CE]|[DF]E D3[CE]|[DF]E D3[CE]|[DG]B [DA]3[DF]|
w:Now pon-der well, You par-ents dear, These words which I shall
V:2
A,2|D4A,2|D,4D2|B,2F,2G,2|
V:1
[CE]4z[A,F]|[B,G]B [EA]3[DF]|[CA]F D3[DA]|[DB]d F3E&x2D2C2|D4||
w:write; A dole-ful sto-ry you shall hear, In time brought forth to light.
V:2
A,2A,,2A,2|E2C2D2|A,2B,2F,2|G,2A,2[A,G]2|[DF]4||

